Otagle3/Assets/ikonySvG/KanwaRysunku.svg

<svg id="SVGRoot" width="206px" height="206px" version="1.1" viewBox="0 0 206 206" xmlns="http://www.w3.org/2000/svg">
 <g transform="matrix(3.7795 0 0 3.7795 -1795.2 2502.6)">
  <flowRoot fill="black" font-family="sans-serif" font-size="40px" letter-spacing="0px" word-spacing="0px" style="line-height:1.25" xml:space="preserve"><flowRegion><rect x="-392.69" y="-63.57" width="758.02" height="397.52"/></flowRegion><flowPara/></flowRoot>
  <flowRoot fill="black" font-family="sans-serif" font-size="40px" letter-spacing="0px" word-spacing="0px" style="line-height:1.25" xml:space="preserve"><flowRegion><rect x="-251.87" y="-84.492" width="624.44" height="455.45"/></flowRegion><flowPara/></flowRoot>
  <flowRoot fill="black" font-family="sans-serif" font-size="40px" letter-spacing="0px" word-spacing="0px" style="line-height:1.25" xml:space="preserve"><flowRegion><rect x="-202.78" y="-50.695" width="473.96" height="281.64"/></flowRegion><flowPara/></flowRoot>
  <flowRoot fill="black" font-family="sans-serif" font-size="40px" letter-spacing="0px" word-spacing="0px" style="line-height:1.25" xml:space="preserve"><flowRegion><rect x="-86.906" y="-78.859" width="516.61" height="410.39"/></flowRegion><flowPara/></flowRoot>
  <g transform="translate(335.08 -2.9266e-6)">
   <rect x="141.16" y="-660.87" width="52.396" height="52.396" fill="#db3b3b" stroke="#000" stroke-linecap="round" stroke-width=".52068" style="paint-order:fill markers stroke"/>
   <text x="167.29863" y="-612.86243" font-family="sans-serif" font-size="6.35px" letter-spacing="0px" stroke-width=".26458" text-align="center" text-anchor="middle" word-spacing="0px" style="line-height:1.25" xml:space="preserve"><tspan x="167.29863" y="-612.86243" fill="#ffffff" font-family="sans-serif" font-size="4.9389px" stroke-width=".26458" text-align="center" text-anchor="middle">Kanwa rysunku</tspan></text>
   <g transform="matrix(.054096 0 0 .054096 153.85 -654.71)" fill="#fff">
    <g fill="#fff">
     <path d="m481.5 259h-14.1v-209c0-3.3-2.7-6-6-6h-148.9v-26.6c0-3.3-2.7-6-6-6h-101c-3.3 0-6 2.7-6 6v26.6h-148.9c-3.3 0-6 2.7-6 6v209h-14.1c-3.3 0-6 2.7-6 6v35.1c0 3.3 2.7 6 6 6h168.8l-84.7 146.6c-1.7 2.9-.7 6.5 2.2 8.2l10.9 6.3h-7.4c-3.3 0-6 2.7-6 6s2.7 6 6 6h29.3.5.5 210.4.5.5 29.3c3.3 0 6-2.7 6-6s-2.7-6-6-6h-7.4l10.9-6.3c2.9-1.7 3.8-5.3 2.2-8.2l-84.7-146.6h168.8c3.3 0 6-2.7 6-6v-35.1c.4-3.3-2.3-6-5.6-6zm-270-235.6h89v20.6h-89zm-154.9 32.6h398.8v203h-6.1l-78.8-127.6c-1.1-1.8-3-2.8-5.1-2.8h-.1c-2.1 0-4.1 1.2-5.1 3l-73.7 127.4h-11.5l-62.4-108.2c-.9-1.6-2.6-2.7-4.4-2.9s-3.7.4-5 1.7l-109.5 109.4h-37.1zm378.6 203h-134.8l65.1-112.8zm-174 0h-150.6l95.4-95.4zm-48 47.1h26.6l-91.8 159-20-11.6zm45.1 0 38 65.9h-80.7l38-65.9zm-97.6 161.2 48.1-83.3h94.5l48.1 83.3zm223.2-13.8-20 11.6-91.8-159h26.6zm91.6-159.4h-439v-23.1h438.9v23.1z"/>
     <path d="m284.3 161.5c17.1 0 31-13.9 31-31s-13.9-30.9-31-30.9-31 13.9-31 30.9c0 17.1 13.9 31 31 31zm0-49.9c10.5 0 19 8.5 19 18.9 0 10.5-8.5 19-19 19s-19-8.5-19-19c0-10.4 8.5-18.9 19-18.9z"/>
     <path d="m352.9 488.6h-195.2c-3.3 0-6 2.7-6 6s2.7 6 6 6h195.2c3.3 0 6-2.7 6-6s-2.7-6-6-6z"/>
    </g>
   </g>
  </g>
 </g>
</svg>

<?xml version="1.0" encoding="UTF-8" standalone="no"?>
<svg
   xmlns:osb="http://www.openswatchbook.org/uri/2009/osb"
   xmlns:dc="http://purl.org/dc/elements/1.1/"
   xmlns:cc="http://creativecommons.org/ns#"
   xmlns:rdf="http://www.w3.org/1999/02/22-rdf-syntax-ns#"
   xmlns:svg="http://www.w3.org/2000/svg"
   xmlns="http://www.w3.org/2000/svg"
   id="svg47"
   version="1.1"
   viewBox="0 0 52.758294 52.758296"
   height="199.40143"
   width="199.40143">
  <defs
     id="defs42">
    <pattern
       id="EMFhbasepattern"
       patternUnits="userSpaceOnUse"
       width="6"
       height="6"
       x="0"
       y="0" />
    <marker
       style="overflow:visible"
       id="Arrow1Mend-5-0"
       refX="0"
       refY="0"
       orient="auto">
      <path
         transform="matrix(-0.4,0,0,-0.4,-4,0)"
         style="fill:#000000;fill-opacity:1;fill-rule:evenodd;stroke:#000000;stroke-width:1.00000003pt;stroke-opacity:1"
         d="M 0,0 5,-5 -12.5,0 5,5 Z"
         id="path1146-3-3" />
    </marker>
    <marker
       style="overflow:visible"
       id="Arrow1Mend-5-3"
       refX="0"
       refY="0"
       orient="auto">
      <path
         transform="matrix(-0.4,0,0,-0.4,-4,0)"
         style="fill:#000000;fill-opacity:1;fill-rule:evenodd;stroke:#000000;stroke-width:1.00000003pt;stroke-opacity:1"
         d="M 0,0 5,-5 -12.5,0 5,5 Z"
         id="path1146-3-9" />
    </marker>
    <marker
       orient="auto"
       refY="0"
       refX="0"
       id="Arrow1Mend-5-0-4"
       style="overflow:visible">
      <path
         id="path1146-3-3-8"
         d="M 0,0 5,-5 -12.5,0 5,5 Z"
         style="fill:#ffffff;fill-opacity:1;fill-rule:evenodd;stroke:#ffffff;stroke-width:1.00000003pt;stroke-opacity:1"
         transform="matrix(-0.4,0,0,-0.4,-4,0)" />
    </marker>
    <marker
       orient="auto"
       refY="0"
       refX="0"
       id="Arrow1Mend-5-3-8"
       style="overflow:visible">
      <path
         id="path1146-3-9-5"
         d="M 0,0 5,-5 -12.5,0 5,5 Z"
         style="fill:#ffffff;fill-opacity:1;fill-rule:evenodd;stroke:#ffffff;stroke-width:1.00000003pt;stroke-opacity:1"
         transform="matrix(-0.4,0,0,-0.4,-4,0)" />
    </marker>
    <marker
       style="overflow:visible"
       id="Arrow1Mend"
       refX="0"
       refY="0"
       orient="auto">
      <path
         transform="matrix(-0.4,0,0,-0.4,-4,0)"
         style="fill:#000000;fill-opacity:1;fill-rule:evenodd;stroke:#000000;stroke-width:1.00000003pt;stroke-opacity:1"
         d="M 0,0 5,-5 -12.5,0 5,5 Z"
         id="path1146" />
    </marker>
    <marker
       orient="auto"
       refY="0"
       refX="0"
       id="Arrow1Mend-5"
       style="overflow:visible">
      <path
         id="path1146-3"
         d="M 0,0 5,-5 -12.5,0 5,5 Z"
         style="fill:#ffffff;fill-opacity:1;fill-rule:evenodd;stroke:#ffffff;stroke-width:1.00000003pt;stroke-opacity:1"
         transform="matrix(-0.4,0,0,-0.4,-4,0)" />
    </marker>
    <marker
       style="overflow:visible"
       id="Arrow1Mstart"
       refX="0"
       refY="0"
       orient="auto">
      <path
         transform="matrix(0.4,0,0,0.4,4,0)"
         style="fill:#000000;fill-opacity:1;fill-rule:evenodd;stroke:#000000;stroke-width:1.00000003pt;stroke-opacity:1"
         d="M 0,0 5,-5 -12.5,0 5,5 Z"
         id="path1143" />
    </marker>
    <marker
       orient="auto"
       refY="0"
       refX="0"
       id="Arrow1Mstart-1"
       style="overflow:visible">
      <path
         id="path1143-7"
         d="M 0,0 5,-5 -12.5,0 5,5 Z"
         style="fill:#ffffff;fill-opacity:1;fill-rule:evenodd;stroke:#ffffff;stroke-width:1.00000003pt;stroke-opacity:1"
         transform="matrix(0.4,0,0,0.4,4,0)" />
    </marker>
    <marker
       style="overflow:visible"
       id="Arrow1Lend"
       refX="0"
       refY="0"
       orient="auto">
      <path
         transform="matrix(-0.8,0,0,-0.8,-10,0)"
         style="fill:#000000;fill-opacity:1;fill-rule:evenodd;stroke:#000000;stroke-width:1.00000003pt;stroke-opacity:1"
         d="M 0,0 5,-5 -12.5,0 5,5 Z"
         id="path1140" />
    </marker>
    <marker
       style="overflow:visible"
       id="Arrow1Lstart"
       refX="0"
       refY="0"
       orient="auto">
      <path
         transform="matrix(0.8,0,0,0.8,10,0)"
         style="fill:#000000;fill-opacity:1;fill-rule:evenodd;stroke:#000000;stroke-width:1.00000003pt;stroke-opacity:1"
         d="M 0,0 5,-5 -12.5,0 5,5 Z"
         id="path1137" />
    </marker>
    <marker
       orient="auto"
       refY="0"
       refX="0"
       id="Arrow1Lend-5"
       style="overflow:visible">
      <path
         id="path1140-4"
         d="M 0,0 5,-5 -12.5,0 5,5 Z"
         style="fill:#ffffff;fill-opacity:1;fill-rule:evenodd;stroke:#ffffff;stroke-width:1.00000003pt;stroke-opacity:1"
         transform="matrix(-0.8,0,0,-0.8,-10,0)" />
    </marker>
    <marker
       orient="auto"
       refY="0"
       refX="0"
       id="Arrow1Lstart-93"
       style="overflow:visible">
      <path
         id="path1137-7"
         d="M 0,0 5,-5 -12.5,0 5,5 Z"
         style="fill:#ffffff;fill-opacity:1;fill-rule:evenodd;stroke:#ffffff;stroke-width:1.00000003pt;stroke-opacity:1"
         transform="matrix(0.8,0,0,0.8,10,0)" />
    </marker>
    <linearGradient
       id="linearGradient4460"
       osb:paint="solid">
      <stop
         style="stop-color:#db3b3b;stop-opacity:1;"
         offset="0"
         id="stop4458" />
    </linearGradient>
  </defs>
  <metadata
     id="metadata45">
    <rdf:RDF>
      <cc:Work
         rdf:about="">
        <dc:format>image/svg+xml</dc:format>
        <dc:type
           rdf:resource="http://purl.org/dc/dcmitype/StillImage" />
        <dc:title></dc:title>
      </cc:Work>
    </rdf:RDF>
  </metadata>
  <g
     id="g8556"
     transform="translate(49.836509,-375.23204)">
    <g
       id="g5305">
      <g
         id="g781"
         style="display:inline"
         transform="translate(-190.47524,1036.0744)">
        <rect
           style="fill:#db3b3b;fill-opacity:1;stroke:#000000;stroke-width:0.520679;stroke-linecap:round;stroke-miterlimit:4;stroke-dasharray:none;paint-order:fill markers stroke"
           id="rect835-2-0-2-8-1-5-6-8"
           width="52.395985"
           height="52.395985"
           x="141.16374"
           y="-660.87268" />
        <text
           xml:space="preserve"
           style="font-size:6.3499999px;line-height:1.25;font-family:voestalpine;-inkscape-font-specification:voestalpine;text-align:center;letter-spacing:0px;word-spacing:0px;text-anchor:middle;stroke-width:0.26458299"
           x="167.29863"
           y="-611.03052"
           id="text858-5-83-73-6"><tspan
             id="tspan921-84-3-0"
             x="167.29863"
             y="-611.03052"
             style="font-size:6.3499999px;text-align:center;text-anchor:middle;fill:#ffffff;fill-opacity:1;stroke-width:0.26458299">Kanwa rysunku</tspan></text>
        <g
           style="fill:#ffffff;fill-opacity:1"
           id="g1443"
           transform="matrix(0.05409596,0,0,0.05409596,153.85209,-654.70542)">
          <g
             id="g1429"
             style="fill:#ffffff;fill-opacity:1">
            <path
               id="path1423"
               d="M 481.5,259 H 467.4 V 50 c 0,-3.3 -2.7,-6 -6,-6 H 312.5 V 17.4 c 0,-3.3 -2.7,-6 -6,-6 h -101 c -3.3,0 -6,2.7 -6,6 V 44 H 50.6 c -3.3,0 -6,2.7 -6,6 V 259 H 30.5 c -3.3,0 -6,2.7 -6,6 v 35.1 c 0,3.3 2.7,6 6,6 h 168.8 l -84.7,146.6 c -1.7,2.9 -0.7,6.5 2.2,8.2 l 10.9,6.3 h -7.4 c -3.3,0 -6,2.7 -6,6 0,3.3 2.7,6 6,6 h 29.3 c 0.2,0 0.4,0 0.5,0 0.2,0 0.4,0 0.5,0 H 361 c 0.2,0 0.4,0 0.5,0 0.2,0 0.4,0 0.5,0 h 29.3 c 3.3,0 6,-2.7 6,-6 0,-3.3 -2.7,-6 -6,-6 h -7.4 l 10.9,-6.3 c 2.9,-1.7 3.8,-5.3 2.2,-8.2 L 312.3,306.1 h 168.8 c 3.3,0 6,-2.7 6,-6 V 265 c 0.4,-3.3 -2.3,-6 -5.6,-6 z M 211.5,23.4 h 89 V 44 h -89 z M 56.6,56 h 148.9 101 148.9 v 203 h -6.1 L 370.5,131.4 c -1.1,-1.8 -3,-2.8 -5.1,-2.8 0,0 -0.1,0 -0.1,0 -2.1,0 -4.1,1.2 -5.1,3 L 286.5,259 H 275 L 212.6,150.8 c -0.9,-1.6 -2.6,-2.7 -4.4,-2.9 -1.8,-0.2 -3.7,0.4 -5,1.7 L 93.7,259 H 56.6 Z M 435.2,259 H 300.4 l 65.1,-112.8 z m -174,0 H 110.6 L 206,163.6 Z m -48,47.1 h 26.6 l -91.8,159 -20,-11.6 z m 45.1,0 38,65.9 h -80.7 l 38,-65.9 z M 160.7,467.3 208.8,384 h 94.5 l 48.1,83.3 z m 223.2,-13.8 -20,11.6 -91.8,-159 h 26.6 z M 475.5,294.1 H 302.2 261.7 250.2 209.7 36.5 V 271 h 14.1 220.9 c 0,0 0,0 0,0 0,0 0,0 0,0 H 290 c 0,0 0,0 0,0 0,0 0,0 0,0 h 171.3 14.1 v 23.1 z"
               style="fill:#ffffff;fill-opacity:1" />
            <path
               id="path1425"
               d="m 284.3,161.5 c 17.1,0 31,-13.9 31,-31 0,-17.1 -13.9,-30.9 -31,-30.9 -17.1,0 -31,13.9 -31,30.9 0,17.1 13.9,31 31,31 z m 0,-49.9 c 10.5,0 19,8.5 19,18.9 0,10.5 -8.5,19 -19,19 -10.5,0 -19,-8.5 -19,-19 0,-10.4 8.5,-18.9 19,-18.9 z"
               style="fill:#ffffff;fill-opacity:1" />
            <path
               id="path1427"
               d="M 352.9,488.6 H 157.7 c -3.3,0 -6,2.7 -6,6 0,3.3 2.7,6 6,6 h 195.2 c 3.3,0 6,-2.7 6,-6 0,-3.3 -2.7,-6 -6,-6 z"
               style="fill:#ffffff;fill-opacity:1" />
          </g>
        </g>
      </g>
    </g>
  </g>
</svg>
